X:1
T:Title
%%score { ( 1 3 5 ) | ( 2 4 ) }
L:1/8
Q:1/4=100
M:4/4
K:C
V:1 treble nm="Grand Piano"
V:3 treble 
V:5 treble 
V:2 bass 
V:4 bass 
V:1
 [EG]2 [EG]2 [EG]3 [DF] | [CE][DF][EG][FA] [EG]2 [Ec]2 | A2 A2 G3 c | z4 d4 | %4
w: J.~Howard~Entwisle * * *||||
 [EG]2 [Ec]2 [Ge]3 [Ec] | dcBA [FA]2 [EG]2 | A2 A2 G3 c | [DB][Ec] [Fd]2 [Ec]4 | e3 B ^G2 [^G,E]2 | %9
w: |||||
 [CEA]2 B2 cB A2 | [^Fd]2 [Fd]2 [Gd]3 c | z2 A2 G2 z2 | z4 [EG]4 | EF[EG][FA] [EG]2 [Ec]2 | %14
w: |||||
 [FA]2 [Gf]2 [Ge]3 d | c2 B-[FB] [Ec]4 |] %16
w: ||
V:2
 [C,G,]2 [C,C]2 [C,G,]3 [C,G,] | [C,G,]2 [C,C]2 [C,C]2 [C,C]2 | [F,CF]2 [F,CF]2 [G,CE]3 [G,CE] | %3
 z4 G2 z2 | [C,C]2 [C,G,]2 [C,C]3 [C,G,] | [F,A,F]2 [F,CF]2 [C,C]2 [C,C]2 | %6
 [F,CF]2 [^F,C_E]2 [G,C=E]3 [G,E] | [G,,G,]2 [G,,G,]2 [C,G,]4 | E3 B, ^G,2 E,D, | z4 [A,E]2 z2 | %10
 [D,A,]2 [D,C]2 [D,B,]3 [D,A,D] | [D,G,D]2 .[D,^F,D]2 z2 F2 | [C,G,]2 [C,C]2 [C,C]2 z D | %13
 CD [C,C]2 [C,C]2 [C,C]2 | [F,C]2 [D,B,]2 [E,C]3 [F,A,F] | [G,E]2 [G,,G,]2 [C,G,]4 |] %16
V:3
 x8 | x8 | x8 | cB c2 z2 F2 | x8 | x8 | x8 | x8 | x8 | x8 | x8 | B2 z C [G,B,]4 | %12
 [CE][DF][EG][FA] z2 z F | x8 | x8 | z2 .D2 z4 |] %16
V:4
 x8 | x8 | x8 | [A,D^F]2 [A,CF]2 [G,B,]4 | x8 | x8 | x8 | x8 | x8 | C,2 [E,^G,E]2 z B, [A,CE]2 | %10
 x8 | z4 G,,4 | z4 z2 C,2 | [C,G,]2 z2 z4 | x8 | x8 |] %16
V:5
 x8 | x8 | x8 | x8 | x8 | x8 | x8 | x8 | x8 | x8 | x8 | x8 | z4 z2 G,2 | x8 | x8 | x8 |] %16

